resources/svg/creative-commons-sa-fill.svg

<svg fill="currentColor" viewBox="0 0 24 24" xmlns="http://www.w3.org/2000/svg"><path d="M12 2C17.52 2 22 6.48 22 12C22 17.52 17.52 22 12 22C6.48 22 2 17.52 2 12C2 6.48 6.48 2 12 2ZM12 6C9.82278 6 7.97058 7.66991 7.28433 10.0006L6 10L8.5 13L11 10L9.40123 10.0003C9.91991 8.80452 10.8895 8 12 8C13.6569 8 15 9.79086 15 12C15 14.2091 13.6569 16 12 16C10.8899 16 9.92064 15.1961 9.40181 14.0011L7.28471 14.0007C7.97126 16.3307 9.82318 18 12 18C14.7614 18 17 15.3137 17 12C17 8.68629 14.7614 6 12 6Z"/></svg>

<svg xmlns="http://www.w3.org/2000/svg" viewBox="0 0 24 24" fill="currentColor">
    <g>
        <path fill="none" d="M0 0h24v24H0z"/>
        <path d="M12 2c5.52 0 10 4.48 10 10s-4.48 10-10 10S2 17.52 2 12 6.48 2 12 2zm0 4C9.895 6 8.094 7.56 7.357 9.77l-.073.23H6l2.5 3 2.5-3H9.401C9.92 8.805 10.89 8 12 8c1.657 0 3 1.79 3 4s-1.343 4-3 4c-1.048 0-1.971-.717-2.508-1.803L9.402 14H7.285C7.97 16.33 9.823 18 12 18c2.761 0 5-2.686 5-6s-2.239-6-5-6z"/>
    </g>
</svg>
